!!!!SEGMENT: pl-wtm--r-730-22-m_moniuszko-stanislaw--moja-pieszczotka.krn
!!!cenid: 18xx:1702
!!!COM: Moniuszko, Stanisław
!!!COM-rismid: pe30008351
!!!CDT: 1819/05/05-1872/06/04
!!!CNT: Polish
!!!OTL: Moja pieszczotka
!!!PDT:
!!!AGN: Secular
!!!SMS-siglum: PL-Wtm
!!!SMS-shelfmark: R 730/22/M
!!!SMS-shelfwork: W
!!!SMS-variant:
!!!SMS-altvar:
!!!NIFC-rismid: 1001099834
!!!URL-scan: http://repozytorium.nifc.pl/skany/pl-wtm-nut--r730m-1-43
!!!ONB-nifc: Skan 0025, No. 774
**kern	**kern	**dynam	**kern	**text	**text	**dynam
*part3	*part2	*part2	*part1	*part1	*part1	*part1
*staff3	*staff2	*	*staff1	*staff1	*staff1	*
*Iempty	*Iforte	*	*Ivox	*	*	*
*	*I"Fortepian	*	*I"Głos	*	*	*
*	*I'pf	*	*I'V	*	*	*
*clefF4	*clefG2	*	*clefG2	*	*	*
*k[]	*k[]	*	*k[]	*	*	*
*C:	*C:	*	*C:	*	*	*
*M3/8	*M3/8	*	*M3/8	*	*	*
=1	=1	=1	=1	=1	=1	=1
!LO:TX:t=P:problem:all\right:global	!LO:TX:t=P:problem:all\right:global	!	!	!	!	!
8C\L	16ee'\LL	p	4.r	.	.	.
.	16ee'\	.	.	.	.	.
8E\	16dd'\	.	.	.	.	.
.	16dd'\	.	.	.	.	.
8eJ 8B-X\	16ee'\	.	.	.	.	.
.	16ee'\JJ	.	.	.	.	.
=2	=2	=2	=2	=2	=2	=2
8C\L	16ff'\LL	.	4.r	.	.	.
.	16ff'\	.	.	.	.	.
(<8A\	16cc'\	.	.	.	.	.
.	16cc'\	.	.	.	.	.
8fJ 8c 8A-X\)	16dd'\	.	.	.	.	.
.	16dd'\JJ	.	.	.	.	.
=3	=3	=3	=3	=3	=3	=3
8C\L	16ee'\LL	.	4.r	.	.	.
.	16ee'\	.	.	.	.	.
8G\	16b'\	.	.	.	.	.
.	16b'\	.	.	.	.	.
8eJ 8c\	16cc'\	.	.	.	.	.
.	16cc'\JJ	.	.	.	.	.
=4	=4	=4	=4	=4	=4	=4
!LO:TX:t=P:problem:mixed beam	!	!	!	!	!	!
8FF#X/L	16dd'\LL	.	4.r	.	.	.
.	16dd'\	.	.	.	.	.
8D\	16cc'\	.	.	.	.	.
.	16cc'\	.	.	.	.	.
8c\J 8F#X\ 8D#X\	16a'\	.	.	.	.	.
.	16a'\JJ	.	.	.	.	.
=5	=5	=5	=5	=5	=5	=5
!LO:TX:t=P:problem:mixed beam	!	!	!	!	!	!
8GG/L	(16g\LL	.	4.r	.	.	.
.	16cc\	.	.	.	.	.
8c\J 8G\ 8E^\	16ff\	.	.	.	.	.
.	16ee\JJ)	.	.	.	.	.
!LO:TX:t=P:problem:mixed beam	!	!	!	!	!	!
!LO:TX:t=P:problem:belka przez kreskę taktową	!	!	!	!	!	!
8GG/L	(16cc\LL	.	.	.	.	.
!	!LO:TX:t=P:problem:belka przez kreskę taktową	!	!	!	!	!
.	16ee\JJ	.	.	.	.	.
=6	=6	=6	=6	=6	=6	=6
8cJ 8G 8E^\	16aa\LL	.	4.r	.	.	.
.	16gg\JJ)	.	.	.	.	.
!LO:TX:t=P:problem:mixed beam	!	!	!	!	!	!
8GG/L	(16ff#X\LL	.	.	.	.	.
.	16gg\	.	.	.	.	.
8BJ 8F 8D^/	16eee\	.	.	.	.	.
.	16ddd\JJ)	.	.	.	.	.
=7	=7	=7	=7	=7	=7	=7
4c 4E 4C\	4ccc\	.	4.r	.	.	.
8r	8g/	p	.	.	.	.
=8	=8	=8	=8	=8	=8	=8
!	!	!	!LO:TX:a:t=[segno]:problem:segno na kresce taktowej	!	!	!
4r	4g^/	.	4.r	.	.	.
!LO:TX:a:t=[segno]:problem:segno na kresce taktowej	!LO:TX:a:t=[segno]:problem:segno na kresce taktowej	!	!	!	!	!
.	8qdd/	f	.	.	.	.
8f 8d 8G\	8gg 8b\	.	.	.	.	.
=9||	=9||	=9||	=9||	=9||	=9||	=9||
4e 4c\	8cc\	p	4.r	.	.	.
.	8eL 8c/	.	.	.	.	.
8r	8eJ 8c/	.	.	.	.	.
!!LO:LB:g=original
=10	=10	=10	=10	=10	=10	=10
[4.G [4.BB\	8r	.	8g/	Mo-	Lecz	.
.	8fL 8d/	.	8f#X/	-ja	mo-	.
.	8fJ 8d/	.	8fn/	piesz-	-wy	.
=11	=11	=11	=11	=11	=11	=11
!LO:SIC:v:n=2:s=4.c	!	!	!	!	!	!
4.G] 4.BB/]	8r	.	4e/	-czot-	ży-	.
.	8eL 8c/	.	.	.	.	.
.	8eJ 8c/	.	8e/	-Ka	-wość.	.
=12	=12	=12	=12	=12	=12	=12
!LO:N:vis=4	!	!	!	!	!	!
4.BB/	8r	.	16g/	gdy	gdy	.
.	.	.	16g/	w_we-	ocz-	.
.	8dL 8G/	.	8f#X/	-so-	-ki	.
.	8fJ 8d 8G/	.	8fn/	-łey	za-	.
=13	=13	=13	=13	=13	=13	=13
!LO:SIC:v:n=2:s=4.c	!	!	!	!	!	!
4.G 4.BB/	8r	.	4e/	chwi-	-pa-	.
.	8eL 8c/	.	.	.	.	.
.	8eJ 8c/	.	8g/	-li,	-li,	.
=14	=14	=14	=14	=14	=14	=14
!	!	!	!LO:TX:t=P:problem:all\right:global	!	!	!
4.C/	8eL 8c/	.	8cc\	za-	i	.
.	8f 8d/	.	8b\	-cznie	pocz-	.
.	8gJ 8e/	.	8b-X\	szcze-	-nie	.
=15	=15	=15	=15	=15	=15	=15
4.FF/	8r	.	8a/	-bio-	moc-	.
.	8aL 8f/	.	8g#X/	-tać	-nie	.
.	8aJ 8f/	.	8a/	i	ja-	.
=16	=16	=16	=16	=16	=16	=16
*	*	*	*^	*	*	*
*	*	*	*	*cue	*	*	*
4.F\	(8aL 8c/	.	8cc\	16cc/	Kwi-	-go-	.
.	.	.	.	16cc/	.	.	.
.	8g 8B/	.	8b\	8ryy	-lić	-dy	.
.	8fJ 8A/)	.	8a/	8ryy	i	ró-	.
*	*	*	*v	*v	*	*	*
=17	=17	=17	=17	=17	=17	=17
4.C/	8r	.	4g/	gru-	-żo-	.
.	8eL 8G/	.	.	.	.	.
.	8gJ 8e 8c/	.	8g/	-chać	-wać:	.
=18	=18	=18	=18	=18	=18	=18
!LO:N:vis=4	!	!	!	!	!	!
4.C#X/	8r	.	8a/	tak	per-	.
.	8eL 8A/	.	8g#X/	mi-	-ło-	.
.	8gJ 8e 8A/	.	8gn/	-le	-we	.
=19	=19	=19	=19	=19	=19	=19
.	.	.	8qg/	.	.	.
4.D\	8r	.	(8f/	gru-	ząb-	.
.	8fL 8d 8A/	.	8e/)	-cha	.	.
.	8fJ 8d 8A/	.	8f/	szcze-	-ki	.
!!LO:LB:g=original
=20	=20	=20	=20	=20	=20	=20
*	*	*	*^	*	*	*
4.BB/	8r	.	8a\	16a/	-bio-	bły-	.
.	.	.	.	16a/	.	-sną	.
.	8dL 8G/	.	8g/	8ryy	-ci,	środ	.
.	8fJ 8d 8G/	.	8f/	8ryy	i	ko-	.
*	*	*	*v	*v	*	*	*
=21	=21	=21	=21	=21	=21	=21
4.C/	8r	.	4f/	Kwi-	-ra-	.
.	8eL 8G/	.	.	.	.	.
.	8eJ 8G/	.	8e/	-li	-li	.
=22	=22	=22	=22	=22	=22	=22
!	!	!LO:DY:a	!	!	!	!
4BB\	8r	<	8e/	że	ach!	.
.	8eL 8d 8G#X/	.	8f#X/	nie	wten-	.
8D\	8eJ 8B 8G#/	[[	8g#X/	chcąc	-czas	.
=23	=23	=23	=23	=23	=23	=23
*	*	*	*^	*	*	*
4C#X\	8r	.	8.a/	8ryy	sło-	śmie-	.
.	16eLL 16A 16E/	.	.	8ryy	.	.	.
.	16eJ 16A 16E/	.	16a/	.	-wa	-ley	.
8E\	8c#XJ 8A/	.	8a/	8a\	jed-	w_o-	.
=24	=24	=24	=24	=24	=24	=24	=24
4AA/	8r	.	8cc#\	16cc#X/	-ne-	-czę-	.
.	.	.	.	16cc#/	.	.	.
.	8eL 8c#X 8A/	.	8b\	8ryy	-go	-ta	.
8C#X/	8aJ 8e 8A/	.	8a/	8ryy	po-	po-	.
*	*	*	*v	*v	*	*	*
=25	=25	=25	=25	=25	=25	=25
4.E^\	8r	.	4a/	stra-	-glą-	.
.	8aL 8e 8B/	.	.	.	.	.
.	8g#XJ 8e 8B/	.	8g#X/	-dać	-dam,	.
=26	=26	=26	=26	=26	=26	=26
!	!LO:SIC:v:n=2:s=4f#	!	!	!	!	!
(4.D#X^\	4b 4f 4B/	.	8b/	nie	u-	.
.	.	.	8a#X/	śmiem	-sta	.
.	8r	.	8an/	prze-	po-	.
=27	=27	=27	=27	=27	=27	=27
4E\)	8r	.	4g#X/	-ry-	-my-	.
.	8g#XL 8e 8B/	.	.	.	.	.
8r	8g#J 8e 8B/	.	8b/	-wać	-kam,	.
=28	=28	=28	=28	=28	=28	=28
4D#X\	4b 4f#X 4B/	.	16b\	nie	i	.
.	.	.	16b\	smiem	słu-	.
.	.	.	8a#X/	od-	-chać	.
8r	8r	.	8an/	-po-	nie	.
=29	=29	=29	=29	=29	=29	=29
4.E\	8r	.	4a/	-wia-	żą-	.
.	8BL 8G/	.	.	.	.	.
.	8gJ 8B 8G/	.	8g/	-dać	-dam,	.
!!LO:PB:g=original
=30	=30	=30	=30	=30	=30	=30
(4.E-X\	8r	.	8g/	i	tyl-	.
.	8cL 8G/	.	8g/	tyl-	-ko	.
.	8gJ 8c 8G/	.	8g/	-ko	ca-	.
=31	=31	=31	=31	=31	=31	=31
*	*	*	*^	*	*	*
4.D\)	8r	.	8b\	8ryy	chciał-	-ło-	.
*	*	*	*	*cue	*	*	*
.	8f#XL 8c 8A/	.	8a\	8ryy	.	-wać,	.
.	8f#J 8c 8A/	.	8a/	8a\	-bym	ca-	.
=32	=32	=32	=32	=32	=32	=32	=32
!	!	!	!	!	!	!	!LO:DY:a
(<[4.G 4.GG\	8r	.	8cc\	8ryy	słu-	-ło-	<
.	8fnL 8d/	.	8b\	8ryy	.	-wać	.
.	8fJ 8d/	.	8b/	8b\	-chać,	ca-	.
*	*	*	*v	*v	*	*	*
=33	=33	=33	=33	=33	=33	=33
4.G] 4.C\)	8r	.	4dd\	słu-	-ło-	.
.	8eL 8c/	.	.	.	.	.
.	8eJ 8c/	.	8cc\	-chać,	-wać,	[[
=34	=34	=34	=34	=34	=34	=34
*	*	*	*^	*	*	*
(>8EE/L	4g 4c/	.	8ee/	8ee\L	słu-	tyl-	.
8FF/	.	.	16dd/LL	16dd\L	-chać	-ko	.
.	.	.	16cc/JJ	16cc\JJ	.	.	.
8FF#X/J)	8r	.	16b\LL	8ryy	i	ca-	.
.	.	.	16a\JJ	.	.	.	.
*	*	*	*v	*v	*	*	*
=35	=35	=35	=35	=35	=35	=35
4.GG/	4e 4c/	.	8g/	i	-ło-	.
.	.	.	8g/	ty-	-wać,	.
.	8e 8c#X/	.	8g/	-lko	ca-	.
=36	=36	=36	=36	=36	=36	=36
!	!	!	!	!	!	!LO:DY:a
4GG/	8eL 8c#X/	>	(>4a/	chciał-	-ło-	.
.	8f 8d/	.	.	.	.	.
!	!	!	!	!	!	!LO:DY:a
8G\	8fJ 8d 8B/	]]	8g/)	-bym	.	.
=37	=37	=37	=37	=37	=37	=37
4G 4C\	4e 4c/	.	4g/	słu-	-wać,	<
8r	8r	.	8cc\	-chać,	ach!	[ f
=38	=38	=38	=38	=38	=38	=38
*	*	*	*^	*	*	*
(8EL 8EE/	4cc 4g 4c/	.	8ee/	8ee\L	słu-	tyl-	.
8F 8FF/	.	.	16b/LL	16b\L	.	-ko	.
.	.	.	16cc/JJ	16cc\JJ	.	.	.
8F#XJ 8FF#X/	8r	.	16b\LL	8ryy	-chać	ca-	.
!	!	!	!	!	!	!	!LO:DY:a
.	.	.	16a\JJ	.	.	.	>
*	*	*	*v	*v	*	*	*
=39	=39	=39	=39	=39	=39	=39
4.G 4.GG\)	(8eL 8c/	.	8g/	i	-ło-	.
.	8g 8e/	.	8cc\	tyl-	-wać	]
.	8eJ 8c/)	.	8g/	-ko	ca-	.
=40	=40	=40	=40	=40	=40	=40
4.G 4.GG\	4.f 4.d 4.B^/	.	4a/	chciał-	-ło-	.
.	.	.	8g/	-bym	.	.
!!LO:LB:g=original
=41	=41	=41	=41	=41	=41	=41
!LO:TX:t=P:problem:mixed beam	!	!	!LO:SIC:v:s=8g	!	!	!
8C/L	16ee'\LL	.	8f/	słu-	.	.
.	16ee'\	.	.	.	.	.
8E\	16dd'\	.	8c/	-chać	-wać	.
.	16dd'\	.	.	.	.	.
8e\J 8B-X\	16ee'\	.	8r	.	.	.
.	16ee'\JJ	.	.	.	.	.
=42	=42	=42	=42	=42	=42	=42
!LO:TX:t=P:problem:mixed beam	!	!	!	!	!	!
8C/L	16ff'\LL	.	4.r	.	.	.
.	16ff'\	.	.	.	.	.
(8A\	16cc'\	.	.	.	.	.
.	16cc'\	.	.	.	.	.
8f\J 8c\ 8A-X\)	16dd'\	.	.	.	.	.
.	16dd'\JJ	.	.	.	.	.
=43	=43	=43	=43	=43	=43	=43
!LO:TX:t=P:problem:mixed beam	!	!	!	!	!	!
8C/L	16ee'\LL	.	4.r	.	.	.
.	16ee'\	.	.	.	.	.
8G\	16b'\	.	.	.	.	.
.	16b'\	.	.	.	.	.
8e\J 8c\	16cc'\	.	.	.	.	.
.	16cc'\JJ	.	.	.	.	.
=44	=44	=44	=44	=44	=44	=44
!LO:TX:t=P:problem:mixed beam	!	!	!	!	!	!
8FF#X/L	16dd'\LL	.	4.r	.	.	.
.	16dd'\	.	.	.	.	.
8D\	16cc'\	.	.	.	.	.
.	16cc'\	.	.	.	.	.
8c\J 8F#X\ 8D#X\	16a'\	.	.	.	.	.
.	16a'\JJ	.	.	.	.	.
=45	=45	=45	=45	=45	=45	=45
!LO:TX:t=P:problem:mixed beam	!	!	!	!	!	!
8GG/L	(16g\LL	.	4.r	.	.	.
.	16cc\	.	.	.	.	.
8c\J 8G\ 8E^\	16ff\	.	.	.	.	.
.	16ee\JJ)	.	.	.	.	.
!LO:TX:t=P:problem:mixed beam	!	!	!	!	!	!
!LO:TX:t=P:problem:belka przez kreskę taktową	!	!	!	!	!	!
8GG/L	(16cc\LL	.	.	.	.	.
!	!LO:TX:t=P:problem:belka przez kreskę taktową	!	!	!	!	!
.	16ee\JJ	.	.	.	.	.
=46	=46	=46	=46	=46	=46	=46
8c\J 8G\ 8E^\	16aa\LL	.	4.r	.	.	.
.	16gg\JJ)	.	.	.	.	.
!LO:TX:t=P:problem:mixed beam	!	!	!	!	!	!
8GG/L	(16ff#X\LL	.	.	.	.	.
.	16gg\	.	.	.	.	.
8B\J 8F\ 8D^\	16eee\	.	.	.	.	.
.	16ddd\JJ)	.	.	.	.	.
=47	=47	=47	=47	=47	=47	=47
4c 4E 4C/	4ccc\	.	4.r	.	.	.
8r	8g/	.	.	.	.	.
=48	=48	=48	=48	=48	=48	=48
!	!	!	!LO:TX:a:t=[segno]:problem:segno na kresce taktowej	!	!	!
4r	4g/	.	4.r	.	.	.
!LO:TX:a:t=[segno]:problem:segno na kresce taktowej	!	!	!	!	!	!
!LO:TX:b:t=D.S.	!LO:TX:a:t=[segno]:problem:segno na kresce taktowej	!	!	!	!	!
.	8qdd/	.	.	.	.	.
8f 8d 8G\	8gg 8b\	.	.	.	.	.
=49||	=49||	=49||	=49||	=49||	=49||	=49||
!	!LO:TX:a:t=Coda	!	!	!	!	!
8e 8c\	8cc\	.	4.r	.	.	.
4C 4CC/	4ccc 4gg 4ee 4cc\	.	.	.	.	.
==	==	==	==	==	==	==
*-	*-	*-	*-	*-	*-	*-
!!!system-decoration: s1[(s2,s3)]
!!!RDF**kern: > = above
!!!RDF**kern: < = below
!!!EED: Leszek Kubiak
!!!EST: 2021-04-20
!!!ENC: Andrzej Kubiczek
!!!END: 2021-03-31
